docs/local/img/sprites/cart.svg

<svg width="12" height="15" viewBox="0 0 12 15" xmlns="http://www.w3.org/2000/svg">
<path d="M11.9261 14.3571L11.2361 4.17857C11.2361 3.96429 11.039 3.75 10.8419 3.75H1.18275C0.985626 3.75 0.788501 3.96429 0.788501 4.17857L0 14.4643C0 14.5714 0 14.6786 0.0985626 14.7857C0.197125 14.8929 0.295688 15 0.39425 15H11.5318C11.729 15 11.9261 14.7857 11.9261 14.5714C12.0246 14.4643 12.0246 14.4643 11.9261 14.3571ZM0.887064 14.0357L1.577 4.60714H10.4476L11.1376 14.0357H0.887064Z"/>
<path d="M6.01231 0C4.04106 0 2.56262 1.71429 2.56262 3.75V5.57143C2.56262 5.78571 2.75975 6 2.95687 6C3.154 6 3.35112 5.78571 3.35112 5.57143V3.75C3.35112 2.25 4.53387 0.964286 5.91375 0.964286C7.29363 0.964286 8.47638 2.25 8.47638 3.75V5.57143C8.47638 5.78571 8.6735 6 8.87063 6C9.06775 6 9.26488 5.78571 9.26488 5.57143V3.75C9.462 1.71429 7.885 0 6.01231 0Z"/>
</svg>

<svg width="12" height="15" viewBox="0 0 12 15" xmlns="http://www.w3.org/2000/svg"><path d="M11.926 14.357l-.69-10.178c0-.215-.197-.429-.394-.429h-9.66c-.196 0-.393.214-.393.429L0 14.464c0 .107 0 .215.099.322.098.107.197.214.295.214h11.138c.197 0 .394-.214.394-.429.099-.107.099-.107 0-.214zM.887 14.036l.69-9.429h8.87l.69 9.429H.888z"/><path d="M6.012 0c-1.97 0-3.45 1.714-3.45 3.75v1.821c0 .215.198.429.395.429s.394-.214.394-.429V3.75c0-1.5 1.183-2.786 2.563-2.786 1.38 0 2.562 1.286 2.562 2.786v1.821c0 .215.197.429.395.429.197 0 .394-.214.394-.429V3.75C9.462 1.714 7.885 0 6.012 0z"/></svg>
